X: 4
T: The Hut On Staffin Island
M: 4/4
L: 1/8
K: Dmaj
DB,|:"D"A,B,DE D3E|(3FED FA d2cd|"G"B3d BAFD|"A"E2FE DB,B,D|
     "D"A,B,DE D3E|(3FED FA d2cd|"G"B3d BAFD|1 "A"E2FE "D"D3B,:|2 "A"E2FE "D"D4||
"Bm"d3d- dded|"A"cBcd c2BA|"G"B3A BcdB|"A"AFEF "G"DB,B,2|
"Bm"d3d- dded|"A"cBcd c2BA|"G"B3A BcdB|"A"AFEF "D"D4|
"Bm"d3d- dded|"A"cBcd c2BA|"G"B3A BcdB|"A"AFEF "G"DB,B,D|
"D"A,B,DE D2 DE|(3FED FA d2cd|"G"B3d BAFD|"A"E2FE "D"D3B,||

